img/orders.svg

<svg fill="none" height="24" viewBox="0 0 24 24" width="24" xmlns="http://www.w3.org/2000/svg"><path clip-rule="evenodd" d="m13.5209 2.2345c-.9759-.39567-2.0675-.39567-3.0434 0l-7.49791 3.04096c-.37833.15325-.7023.41595-.93041.75446s-.34996.73741-.34996 1.14559v9.65099c0 .4082.12185.8071.34996 1.1456.22809.3385.55212.6012.93041.7545l7.49791 3.0399c.9759.3957 2.0675.3957 3.0434 0l7.498-3.04c.3781-.1531.702-.4157.93-.7539.2281-.3383.3501-.7371.3503-1.1451v-9.65298c0-.4082-.1218-.80709-.3499-1.1456-.2281-.33848-.5522-.60121-.9305-.75446zm3.2458 5.37182 2.6685-1.02981-6.5915-2.67279-.0028-.00256c-.104-.04193-.2103-.07579-.3181-.10158-.0512-.01226-.1028-.0227-.1546-.03131-.4057-.0671-.8253-.02225-1.2122.13454l-1.91502.777zm-13.26572.14388 7.74822 3.0133v9.3707c-.0314-.0108-.0628-.0226-.0932-.0354l-7.49902-3.04c-.046-.0187-.0854-.0506-.11319-.0917-.02778-.0412-.04268-.0897-.04281-.1393zm16.99822.02429-7.7482 2.99131v9.3691c.029-.0103.0578-.022.0863-.0336l7.5059-3.0428c.0462-.0187.0857-.0508.1135-.0921.0278-.0414.0426-.0901.0425-.1399zm-13.28372-2.27448-2.6245 1.0638 7.40972 2.88151 2.6895-1.03781z" fill="#1c8aa9" fill-rule="evenodd"/></svg>

<svg width="24" height="24" viewBox="0 0 24 24" fill="none" xmlns="http://www.w3.org/2000/svg">
<path fill-rule="evenodd" clip-rule="evenodd" d="M13.5209 2.2345C12.545 1.83883 11.4534 1.83883 10.4775 2.2345L2.97959 5.27546C2.60126 5.42871 2.27729 5.69141 2.04918 6.02992C1.82107 6.36843 1.69922 6.76733 1.69922 7.17551V16.8265C1.69922 17.2347 1.82107 17.6336 2.04918 17.9721C2.27727 18.3106 2.6013 18.5733 2.97959 18.7266L10.4775 21.7665C11.4534 22.1622 12.545 22.1622 13.5209 21.7665L21.0189 18.7265C21.397 18.5734 21.7209 18.3108 21.9489 17.9726C22.177 17.6343 22.299 17.2355 22.2992 16.8275V7.17452C22.2992 6.76632 22.1774 6.36743 21.9493 6.02892C21.7212 5.69044 21.3971 5.42771 21.0188 5.27446L13.5209 2.2345ZM16.7667 7.60632L19.4352 6.57651L12.8437 3.90372L12.8409 3.90116C12.7369 3.85923 12.6306 3.82537 12.5228 3.79958C12.4716 3.78732 12.42 3.77688 12.3682 3.76827C11.9625 3.70117 11.5429 3.74602 11.156 3.90281L9.24098 4.67981L16.7667 7.60632ZM3.50098 7.7502L11.2492 10.7635V20.1342C11.2178 20.1234 11.1864 20.1116 11.156 20.0988L3.65698 17.0588C3.61098 17.0401 3.57158 17.0082 3.54379 16.9671C3.51601 16.9259 3.50111 16.8774 3.50098 16.8278V7.7502ZM20.4992 7.77449L12.751 10.7658V20.1349C12.78 20.1246 12.8088 20.1129 12.8373 20.1013L20.3432 17.0585C20.3894 17.0398 20.4289 17.0077 20.4567 16.9664C20.4845 16.925 20.4993 16.8763 20.4992 16.8265V7.77449ZM7.21548 5.50001L4.59098 6.56381L12.0007 9.44532L14.6902 8.40751L7.21548 5.50001Z" fill="#1C8AA9"/>
</svg>
